X:0962
T:Bannocks of barley meal.
M:3/4
L:1/8
Q:1/4=144
I: :: ||
Z:Jack Campin * www.campin.me.uk * 2009
K:G
G2 G2 B2|A2 AcBA|G2 GA`Bc|d2 f2  g2   :|
g2 d2 B2|A2 fgaf|g2 d2 A2|g3  a (ga/b/)|
e2 ge`dB|d2 AcBA|G2 GA`Bd|d2 f2  g2   |]
<end>
<start>
